X:9
T:Ei, du feiner ...
B:Frau Nachtigall (Straburg - 1928)
Z:<anamnese@laposte.net> -- http://anamnese.fr.st
N:p.18
M:C|
L:1/4
Q:1/4=150
K:D
"D" F > G A "G"B | "D" A2 A "G" G | "A" F-F "A7" E E | "D" D3 z ::
 "A" c3/2  "B" d/ "C#" e "D" f | "A" e2 e "D"d |"A" c-c "E7" B-B |"A" A3 A :| 
d2 B2 | A3 A | d B | A3 A | d2 d e | d2 c2 | d2 B2 |
 A3 z | F > G A B | A > A A G | F F E E | D3 z |]
